assets/bookmark.svg

<svg xmlns="http://www.w3.org/2000/svg" style="isolation:isolate" viewBox="0 0 24 24"><defs><clipPath id="a"><path d="M0 0h24v24H0z"/></clipPath></defs><g clip-path="url(#a)"><mask id="b" x="-200%" y="-200%" width="400%" height="400%"><rect x="-200%" y="-200%" width="400%" height="400%" fill="#fff"/><path d="M6 21.002V4.998c0-.53.211-1.039.586-1.414S7.47 2.998 8 2.998h8c.53 0 1.039.211 1.414.586S18 4.468 18 4.998v16h-.007l-5.492-3.176-.501-.289-.5.289-5.5 3.18Z"/></mask><path d="M6 21.002V4.998c0-.53.211-1.039.586-1.414S7.47 2.998 8 2.998h8c.53 0 1.039.211 1.414.586S18 4.468 18 4.998v16h-.007l-5.492-3.176-.501-.289-.5.289-5.5 3.18Z" fill="none"/><path d="M6 21.002V4.998c0-.53.211-1.039.586-1.414S7.47 2.998 8 2.998h8c.53 0 1.039.211 1.414.586S18 4.468 18 4.998v16h-.007l-5.492-3.176-.501-.289-.5.289-5.5 3.18Z" fill="none" mask="url(#b)" vector-effect="non-scaling-stroke" stroke-width="4" stroke="#768787"/></g></svg>

<?xml version="1.0" encoding="UTF-8" standalone="no"?><!-- Generator: Gravit.io --><svg xmlns="http://www.w3.org/2000/svg" xmlns:xlink="http://www.w3.org/1999/xlink" style="isolation:isolate" viewBox="0 0 24 24" width="24pt" height="24pt"><defs><clipPath id="_clipPath_LFNG1VsfxmdOkqDaGrW7UAs1bahcIUxQ"><rect width="24" height="24"/></clipPath></defs><g clip-path="url(#_clipPath_LFNG1VsfxmdOkqDaGrW7UAs1bahcIUxQ)"><clipPath id="_clipPath_N2Ovz0iTu4CeEiDI9HTj9xznbxJqowEg"><path d=" M 0 0 L 24 0 L 24 24 L 0 24 L 0 0 Z " fill="rgb(255,255,255)"/></clipPath><g clip-path="url(#_clipPath_N2Ovz0iTu4CeEiDI9HTj9xznbxJqowEg)"><g><path d=" M 6 21.002 L 6 4.998 C 6 4.468 6.211 3.959 6.586 3.584 C 6.961 3.209 7.47 2.998 8 2.998 L 16 2.998 C 16.53 2.998 17.039 3.209 17.414 3.584 C 17.789 3.959 18 4.468 18 4.998 L 18 20.998 L 17.993 20.998 L 12.501 17.822 L 12 17.533 L 11.5 17.822 L 6 21.002 L 6 21.002 Z " fill="none"/><clipPath id="_clipPath_e4xFlQE9ItMV4tgZJGsyJeiYwN1XiHXm"><path d=" M -48 -48 L 48 -48 L 48 48 L -48 48 L -48 -48 Z  M 6 21.002 L 6 4.998 C 6 4.468 6.211 3.959 6.586 3.584 C 6.961 3.209 7.47 2.998 8 2.998 L 16 2.998 C 16.53 2.998 17.039 3.209 17.414 3.584 C 17.789 3.959 18 4.468 18 4.998 L 18 20.998 L 17.993 20.998 L 12.501 17.822 L 12 17.533 L 11.5 17.822 L 6 21.002 L 6 21.002 Z " fill-rule="evenodd" fill="rgb(255,255,255)"/></clipPath><g clip-path="url(#_clipPath_e4xFlQE9ItMV4tgZJGsyJeiYwN1XiHXm)"><mask id="_mask_ONns4XpBEgme2bguQsHA2r3bZjkSb0Au" x="-200%" y="-200%" width="400%" height="400%"><rect x="-200%" y="-200%" width="400%" height="400%" style="fill:white;"/><path d=" M 6 21.002 L 6 4.998 C 6 4.468 6.211 3.959 6.586 3.584 C 6.961 3.209 7.47 2.998 8 2.998 L 16 2.998 C 16.53 2.998 17.039 3.209 17.414 3.584 C 17.789 3.959 18 4.468 18 4.998 L 18 20.998 L 17.993 20.998 L 12.501 17.822 L 12 17.533 L 11.5 17.822 L 6 21.002 L 6 21.002 Z " fill="black" stroke="none"/></mask><path d=" M 6 21.002 L 6 4.998 C 6 4.468 6.211 3.959 6.586 3.584 C 6.961 3.209 7.47 2.998 8 2.998 L 16 2.998 C 16.53 2.998 17.039 3.209 17.414 3.584 C 17.789 3.959 18 4.468 18 4.998 L 18 20.998 L 17.993 20.998 L 12.501 17.822 L 12 17.533 L 11.5 17.822 L 6 21.002 L 6 21.002 Z " fill="none"/><path d=" M 6 21.002 L 6 4.998 C 6 4.468 6.211 3.959 6.586 3.584 C 6.961 3.209 7.47 2.998 8 2.998 L 16 2.998 C 16.53 2.998 17.039 3.209 17.414 3.584 C 17.789 3.959 18 4.468 18 4.998 L 18 20.998 L 17.993 20.998 L 12.501 17.822 L 12 17.533 L 11.5 17.822 L 6 21.002 L 6 21.002 Z " fill="none" mask="url(#_mask_ONns4XpBEgme2bguQsHA2r3bZjkSb0Au)" vector-effect="non-scaling-stroke" stroke-width="4" stroke="rgb(118,135,135)" stroke-linejoin="miter" stroke-linecap="butt" stroke-miterlimit="4"/></g></g></g></g></svg>
